Adwaita++-Light/panel/24/caffeine-cup-full.svg

<svg height="24" width="24" xmlns="http://www.w3.org/2000/svg">
  <path d="m11.193359 3c-1.0982 1.38422-1.4273496 2.0661956-1.03125 2.9472656.3591.79867 1.286913 1.2057044.820313 3.0527344.7664-.89992 1.375237-2.0428938.773437-2.9648438-.6122-.9377-.9475-1.5071562-.5625-3.0351562zm3 0c-1.0982 1.38422-1.42735 2.0661956-1.03125 2.9472656.3591.79867 1.286913 1.2057044.820313 3.0527344.7664-.89992 1.375237-2.0428937.773437-2.9648438-.6122-.9376999-.9475-1.5071562-.5625-3.0351562zm3 0c-1.0982 1.38422-1.42735 2.0661956-1.03125 2.9472656.3591.79867 1.286913 1.2057044.820313 3.0527344.7664-.89992 1.375237-2.0428937.773437-2.9648438-.6122-.9376999-.9475-1.5071562-.5625-3.0351562zm-9.193359 7c-2.209139 0-4 1.790861-4 4s1.790861 4 4 4c.2424594-.000838.4843405-.02372.7226562-.06836.7393644 1.549451 2.2353798 2.06836 5.2773438 2.06836 6 0 6-2 6-10zm0 2h.00781c.011613 1.596219.052166 2.938455.1953125 3.986328-.067429.008003-.1352268.012566-.2031225.013672-1.1045695 0-2-.895431-2-2s.8954305-2 2-2z" fill="#444"/>
</svg>

<svg xmlns="http://www.w3.org/2000/svg" width="24" height="24" version="1.1">
 <defs>
  <style id="current-color-scheme" type="text/css">
   .ColorScheme-Text { color:#444444; } .ColorScheme-Highlight { color:#4285f4; }
  </style>
 </defs>
 <path style="fill:currentColor" class="ColorScheme-Text" d="M 11.193359,3 C 10.095159,4.38422 9.7660094,5.0661956 10.162109,5.9472656 10.521209,6.7459356 11.449022,7.15297 10.982422,9 11.748822,8.10008 12.357659,6.9571062 11.755859,6.0351562 11.143659,5.0974562 10.808359,4.528 11.193359,3 Z m 3,0 c -1.0982,1.38422 -1.42735,2.0661956 -1.03125,2.9472656 C 13.521209,6.7459356 14.449022,7.15297 13.982422,9 14.748822,8.10008 15.357659,6.9571063 14.755859,6.0351562 14.143659,5.0974563 13.808359,4.528 14.193359,3 Z m 3,0 c -1.0982,1.38422 -1.42735,2.0661956 -1.03125,2.9472656 C 16.521209,6.7459356 17.449022,7.15297 16.982422,9 17.748822,8.10008 18.357659,6.9571063 17.755859,6.0351562 17.143659,5.0974563 16.808359,4.528 17.193359,3 Z M 8,10 c -2.209139,0 -4,1.790861 -4,4 0,2.209139 1.790861,4 4,4 0.2424594,-8.38e-4 0.4843405,-0.02372 0.7226562,-0.06836 C 9.4620206,19.481091 10.958036,20 14,20 c 6,0 6,-2 6,-10 L 8,10 Z m 0,2 0.00781,0 c 0.011613,1.596219 0.052166,2.938455 0.1953125,3.986328 C 8.1356935,15.994331 8.0678957,15.998894 8,16 6.8954305,16 6,15.104569 6,14 6,12.895431 6.8954305,12 8,12 Z"/>
</svg>
